X:192
T: White Cockade with variations
N: O'Farrell's Pocket Companion v.3 (Sky ed. p.99-100)
N: "Scotch"
M: 2/4
L: 1/8
R: march
Q: 200
K: G
G/A/| BB BA/G/| B>c BG| dB c/B/A/G/| EA AG/A/|
BB c/B/A/G/| AB g>a| ag/f/ e/f/g/e/| dBB :|
P:2
B/c/|dB gf/e/| d/B/G/B/ d>e| dB gf/g/| aAA G/A/|
BB c/B/A/G/| AB g>a| b/g/a/f/ e/f/g/e/| dBB :|
P:3
G/A/|B/D/G/D/ B/D/G/D/ | B/G/d/G/ c/B/A/G/| B/G/D/G/ c/B/A/G/|
EA AG/A/| B/G/d/G/ c/B/A/G/| A/G/A/B/ g>e| f/a/g/f/ e/f/g/e/|
dBB :|
P:4
c|d/B/d/B/ g/f/g/e/| e/d/c/B/ d>e| d/e/f/d/ e/f/g/e/| aAA G/A/|
B/G/d/G/ c/B/A/G/| A/G/A/B/ g>e| f/a/g/f/ e/f/g/e/|
dBB :|
P:5
g/a/|bb ba/g/| b>c' bg/a/| bb ba/g/| eaa>f|
g/b/a/g/ f/a/g/f/|e/g/f/a/ g>a|b/a/g/f/ e/f/g/e/|dBB :|
P:6
c|  d/e/g/B/ d/e/g/B/|d/e/g/B/ d>e| d/e/f/d/ e/f/g/e/| aAA G/A/|
B/G/d/G/ c/B/A/G/| D/G/B/d/ g/f/g/a/|b/a/g/f/ e/f/g/e/| dBB :|
